images/icons/Login.svg

<svg width="22" height="22" viewBox="0 0 22 22" fill="none" xmlns="http://www.w3.org/2000/svg">
<path d="M10.3125 17.4166C10.3125 17.0369 10.6203 16.7291 11 16.7291H16.5C16.6265 16.7291 16.7291 16.6265 16.7291 16.4999L16.7291 5.49992C16.7291 5.37335 16.6265 5.27075 16.5 5.27075L11 5.27075C10.6203 5.27075 10.3125 4.96295 10.3125 4.58325C10.3125 4.20356 10.6203 3.89575 11 3.89575H16.5C17.3859 3.89575 18.1041 4.61396 18.1041 5.49992V16.4999C18.1041 17.3859 17.3859 18.1041 16.5 18.1041H11C10.6203 18.1041 10.3125 17.7963 10.3125 17.4166Z" fill="white"/>
<path d="M3.20831 12.0222C3.20831 12.5285 3.61872 12.9389 4.12498 12.9389H8.5763C8.59732 13.2647 8.62363 13.5902 8.65524 13.9154L8.68243 14.1952C8.72664 14.65 9.20968 14.9225 9.62183 14.7249C11.2974 13.9219 12.8143 12.8231 14.0995 11.4812L14.127 11.4525C14.3718 11.1969 14.3718 10.7937 14.127 10.5381L14.0995 10.5094C12.8143 9.16753 11.2974 8.06866 9.62183 7.26564C9.20969 7.06812 8.72664 7.34055 8.68243 7.79544L8.65524 8.0752C8.62363 8.40037 8.59732 8.72592 8.5763 9.05173L4.12498 9.05173C3.61872 9.05173 3.20831 9.46214 3.20831 9.9684V12.0222Z" fill="white"/>
</svg>

<svg width="22" height="22" fill="none" xmlns="http://www.w3.org/2000/svg"><path d="M10.313 17.417c0-.38.307-.688.687-.688h5.5a.23.23 0 0 0 .23-.23v-11a.23.23 0 0 0-.23-.228H11a.687.687 0 1 1 0-1.375h5.5c.886 0 1.604.718 1.604 1.604v11c0 .886-.718 1.604-1.604 1.604H11a.687.687 0 0 1-.688-.687Z" fill="#fff"/><path d="M3.208 12.022c0 .506.41.917.917.917h4.451c.021.326.048.651.08.976l.026.28a.658.658 0 0 0 .94.53A15.439 15.439 0 0 0 14.1 11.48l.027-.028a.661.661 0 0 0 0-.915l-.027-.029a15.44 15.44 0 0 0-4.478-3.243.658.658 0 0 0-.94.53l-.027.28c-.031.324-.058.65-.079.976H4.125a.917.917 0 0 0-.917.916v2.054Z" fill="#fff"/></svg>
